X:33
T:Litten Hornpipe. LIT.033
M:2/2
Q:1/4=170
L:1/8
B:Wm. Litten MS, 1802
Z:Village Music Project 2017 Anne Wride
K:F
cB | Ac f4 ed | cBAG F2c2 | dBAB defd | d2c4c2 |
defd gaba | gfed c2f2 | Agab agfe | f2f2f2 :|
ef | gece g ce | afcf afcf | gaba gfed | c2 c2 c2 BA|
BcdB GABG | GABG FGAF | Ggab agfe | f2 f2 f2 |]

